packages/mercury/src/icons/svg-source/bpm/compensation-3.svg

<svg xmlns="http://www.w3.org/2000/svg" width="32" height="32" fill="none" viewBox="0 0 32 32">
  <g clip-path="url(#a)">
    <path fill="#C0CCD9" d="M15.9 31.56a15.5 15.5 0 1 1 15.5-15.5 15.51 15.51 0 0 1-15.5 15.5Zm0-30a14.5 14.5 0 1 0 14.5 14.5 14.52 14.52 0 0 0-14.5-14.5Zm0 27a12.5 12.5 0 1 1 12.5-12.5 12.51 12.51 0 0 1-12.5 12.5Zm0-24a11.5 11.5 0 1 0 11.5 11.5 11.51 11.51 0 0 0-11.5-11.5Zm-1.42 16.56a.53.53 0 0 1-.27-.08l-6.56-4.22a.5.5 0 0 1 0-.84l6.56-4.22a.49.49 0 0 1 .51 0 .48.48 0 0 1 .26.43v8.44a.51.51 0 0 1-.26.44.5.5 0 0 1-.24.05Zm7.54 0a.53.53 0 0 1-.27-.08l-6.56-4.22a.499.499 0 0 1 0-.84l6.56-4.22a.49.49 0 0 1 .51 0 .48.48 0 0 1 .26.43v8.44a.51.51 0 0 1-.26.44.48.48 0 0 1-.26.05h.02Z"/>
  </g>
</svg>

<svg xmlns="http://www.w3.org/2000/svg" viewBox="0 0 32 32"><defs><style>.f10f8570-6213-40c3-a0bf-8027729266af{fill:#81888e;}</style></defs><g id="b9ed7366-b36e-4da2-b6c8-e35a0856d7ce" data-name="compensation-3"><path id="b600a30a-0f27-4a43-a998-4f6b82762852" data-name="icons09" class="f10f8570-6213-40c3-a0bf-8027729266af" d="M15.9,31.56a15.5,15.5,0,1,1,15.5-15.5A15.51,15.51,0,0,1,15.9,31.56Zm0-30a14.5,14.5,0,1,0,14.5,14.5A14.52,14.52,0,0,0,15.9,1.56Zm0,27a12.5,12.5,0,1,1,12.5-12.5A12.51,12.51,0,0,1,15.9,28.56Zm0-24a11.5,11.5,0,1,0,11.5,11.5A11.51,11.51,0,0,0,15.9,4.56ZM14.48,21.12a.53.53,0,0,1-.27-.08L7.65,16.82a.5.5,0,0,1,0-.84l6.56-4.22a.49.49,0,0,1,.51,0,.48.48,0,0,1,.26.43v8.44a.51.51,0,0,1-.26.44A.5.5,0,0,1,14.48,21.12Zm7.54,0a.53.53,0,0,1-.27-.08l-6.56-4.22a.5.5,0,0,1,0-.84l6.56-4.22a.49.49,0,0,1,.51,0,.48.48,0,0,1,.26.43v8.44a.51.51,0,0,1-.26.44A.48.48,0,0,1,22,21.12Z"/></g></svg>
